app/assets/images/icons/active/by.svg

<svg width="32" height="232" viewBox="0 0 32 232" xmlns="http://www.w3.org/2000/svg" xmlns:sketch="http://www.bohemiancoding.com/sketch/ns"><title>by</title><g sketch:type="MSPage" fill="none"><path d="M15.972 120c4.495 0 8.286 1.543 11.371 4.629 3.105 3.105 4.658 6.895 4.658 11.371 0 4.496-1.524 8.238-4.572 11.228-3.238 3.182-7.058 4.772-11.457 4.772-4.324 0-8.076-1.57-11.257-4.714-3.143-3.143-4.715-6.904-4.715-11.286 0-4.381 1.572-8.171 4.715-11.371 3.086-3.086 6.838-4.629 11.257-4.629zm.057 2.887c-3.638 0-6.714 1.276-9.229 3.828-2.609 2.667-3.913 5.762-3.913 9.285 0 3.543 1.294 6.61 3.885 9.201 2.591 2.59 5.676 3.885 9.257 3.885 3.562 0 6.667-1.304 9.314-3.914 2.515-2.419 3.772-5.476 3.772-9.172 0-3.638-1.277-6.732-3.829-9.285-2.552-2.552-5.638-3.828-9.257-3.828zm4.286 9.142v6.543h-1.828v7.772h-4.972v-7.772h-1.828v-6.543c0-.286.099-.529.299-.728.2-.2.443-.3.728-.3h6.573c.265 0 .503.1.713.3.209.199.315.442.315.728zm-6.543-4.114c0-1.505.743-2.258 2.228-2.258 1.486 0 2.229.753 2.229 2.258 0 1.485-.743 2.227-2.229 2.227-1.485 0-2.228-.742-2.228-2.227zm0 0" fill="#206FAC" sketch:type="MSShapeGroup"/><path d="M15.972 80c4.495 0 8.286 1.543 11.371 4.629 3.105 3.105 4.658 6.895 4.658 11.371 0 4.496-1.524 8.238-4.572 11.228-3.238 3.182-7.058 4.772-11.457 4.772-4.324 0-8.076-1.57-11.257-4.714-3.143-3.143-4.715-6.904-4.715-11.286 0-4.381 1.572-8.171 4.715-11.371 3.086-3.086 6.838-4.629 11.257-4.629zm.057 2.887c-3.638 0-6.714 1.276-9.229 3.828-2.609 2.667-3.913 5.762-3.913 9.285 0 3.543 1.294 6.61 3.885 9.201 2.591 2.59 5.676 3.885 9.257 3.885 3.562 0 6.667-1.304 9.314-3.914 2.515-2.419 3.772-5.476 3.772-9.172 0-3.638-1.277-6.732-3.829-9.285-2.552-2.552-5.638-3.828-9.257-3.828zm4.286 9.142v6.543h-1.828v7.772h-4.972v-7.772h-1.828v-6.543c0-.286.099-.529.299-.728.2-.2.443-.3.728-.3h6.573c.265 0 .503.1.713.3.209.199.315.442.315.728zm-6.543-4.114c0-1.505.743-2.258 2.228-2.258 1.486 0 2.229.753 2.229 2.258 0 1.485-.743 2.227-2.229 2.227-1.485 0-2.228-.742-2.228-2.227zm0 0" fill="#fff" sketch:type="MSShapeGroup"/><path d="M15.972 40c4.495 0 8.286 1.543 11.371 4.629 3.105 3.105 4.658 6.895 4.658 11.371 0 4.496-1.524 8.238-4.572 11.228-3.238 3.182-7.058 4.772-11.457 4.772-4.324 0-8.076-1.57-11.257-4.714-3.143-3.143-4.715-6.904-4.715-11.286 0-4.381 1.572-8.171 4.715-11.371 3.086-3.086 6.838-4.629 11.257-4.629zm.057 2.887c-3.638 0-6.714 1.276-9.229 3.828-2.609 2.667-3.913 5.762-3.913 9.285 0 3.543 1.294 6.61 3.885 9.201 2.591 2.59 5.676 3.885 9.257 3.885 3.562 0 6.667-1.304 9.314-3.914 2.515-2.419 3.772-5.476 3.772-9.172 0-3.638-1.277-6.732-3.829-9.285-2.552-2.552-5.638-3.828-9.257-3.828zm4.286 9.142v6.543h-1.828v7.772h-4.972v-7.772h-1.828v-6.543c0-.286.099-.529.299-.728.2-.2.443-.3.728-.3h6.573c.265 0 .503.1.713.3.209.199.315.442.315.728zm-6.543-4.114c0-1.505.743-2.258 2.228-2.258 1.486 0 2.229.753 2.229 2.258 0 1.485-.743 2.227-2.229 2.227-1.485 0-2.228-.742-2.228-2.227zm0 0" fill="#67737B" sketch:type="MSShapeGroup"/><path d="M15.972 0c4.495 0 8.286 1.543 11.371 4.629 3.105 3.105 4.658 6.895 4.658 11.371 0 4.496-1.524 8.238-4.572 11.228-3.238 3.182-7.058 4.772-11.457 4.772-4.324 0-8.076-1.57-11.257-4.714-3.143-3.143-4.715-6.904-4.715-11.286 0-4.381 1.572-8.171 4.715-11.371 3.086-3.086 6.838-4.629 11.257-4.629zm.057 2.887c-3.638 0-6.714 1.276-9.229 3.828-2.609 2.667-3.913 5.762-3.913 9.285 0 3.543 1.294 6.61 3.885 9.201 2.591 2.59 5.676 3.885 9.257 3.885 3.562 0 6.667-1.304 9.314-3.914 2.515-2.419 3.772-5.476 3.772-9.172 0-3.638-1.277-6.732-3.829-9.285-2.552-2.552-5.638-3.828-9.257-3.828zm4.286 9.142v6.543h-1.828v7.772h-4.972v-7.772h-1.828v-6.543c0-.286.099-.529.299-.728.2-.2.443-.3.728-.3h6.573c.265 0 .503.1.713.3.209.199.315.442.315.728zm-6.543-4.114c0-1.505.743-2.258 2.228-2.258 1.486 0 2.229.753 2.229 2.258 0 1.485-.743 2.227-2.229 2.227-1.485 0-2.228-.742-2.228-2.227zm0 0" fill="#3B444F" sketch:type="MSShapeGroup"/></g></svg>

<?xml version="1.0" encoding="UTF-8" standalone="no"?>
<svg width="32px" height="232px" viewBox="0 0 32 232" version="1.1" xmlns="http://www.w3.org/2000/svg" xmlns:xlink="http://www.w3.org/1999/xlink" xmlns:sketch="http://www.bohemiancoding.com/sketch/ns">
    <title>by</title>
    <description>Created with Sketch (http://www.bohemiancoding.com/sketch)</description>
    <defs></defs>
    <g id="Creative-commons" stroke="none" stroke-width="1" fill="none" fill-rule="evenodd" sketch:type="MSPage">
        <path d="M15.972,120 C20.467,120 24.258,121.543 27.343,124.629 C30.448,127.734 32.001,131.524 32.001,136 C32.001,140.496 30.477,144.238 27.429,147.228 C24.191,150.41 20.371,152 15.972,152 C11.648,152 7.896,150.43 4.715,147.286 C1.572,144.143 0,140.382 0,136 C0,131.619 1.572,127.829 4.715,124.629 C7.801,121.543 11.553,120 15.972,120 C15.972,120 11.553,120 15.972,120 L15.972,120 L15.972,120 Z M16.029,122.887 C12.391,122.887 9.315,124.163 6.8,126.715 C4.191,129.382 2.887,132.477 2.887,136 C2.887,139.543 4.181,142.61 6.772,145.201 C9.363,147.791 12.448,149.086 16.029,149.086 C19.591,149.086 22.696,147.782 25.343,145.172 C27.858,142.753 29.115,139.696 29.115,136 C29.115,132.362 27.838,129.268 25.286,126.715 C22.734,124.163 19.648,122.887 16.029,122.887 L16.029,122.887 L16.029,122.887 L16.029,122.887 Z M20.315,132.029 L20.315,138.572 L18.487,138.572 L18.487,146.344 L13.515,146.344 L13.515,138.572 L11.687,138.572 L11.687,132.029 C11.687,131.743 11.786,131.5 11.986,131.301 C12.186,131.101 12.429,131.001 12.714,131.001 L19.287,131.001 C19.552,131.001 19.79,131.101 20,131.301 C20.209,131.5 20.315,131.743 20.315,132.029 C20.315,132.029 20.315,131.743 20.315,132.029 L20.315,132.029 L20.315,132.029 Z M13.772,127.915 C13.772,126.41 14.515,125.657 16,125.657 C17.486,125.657 18.229,126.41 18.229,127.915 C18.229,129.4 17.486,130.142 16,130.142 C14.515,130.142 13.772,129.4 13.772,127.915 L13.772,127.915 Z M13.772,127.915" id="by--lp--blue" fill="#206FAC" sketch:type="MSShapeGroup"></path>
        <path d="M15.972,80 C20.467,80 24.258,81.543 27.343,84.629 C30.448,87.734 32.001,91.524 32.001,96 C32.001,100.496 30.477,104.238 27.429,107.228 C24.191,110.41 20.371,112 15.972,112 C11.648,112 7.896,110.43 4.715,107.286 C1.572,104.143 0,100.382 0,96 C0,91.619 1.572,87.829 4.715,84.629 C7.801,81.543 11.553,80 15.972,80 C15.972,80 11.553,80 15.972,80 L15.972,80 L15.972,80 Z M16.029,82.887 C12.391,82.887 9.315,84.163 6.8,86.715 C4.191,89.382 2.887,92.477 2.887,96 C2.887,99.543 4.181,102.61 6.772,105.201 C9.363,107.791 12.448,109.086 16.029,109.086 C19.591,109.086 22.696,107.782 25.343,105.172 C27.858,102.753 29.115,99.696 29.115,96 C29.115,92.362 27.838,89.268 25.286,86.715 C22.734,84.163 19.648,82.887 16.029,82.887 L16.029,82.887 L16.029,82.887 L16.029,82.887 Z M20.315,92.029 L20.315,98.572 L18.487,98.572 L18.487,106.344 L13.515,106.344 L13.515,98.572 L11.687,98.572 L11.687,92.029 C11.687,91.743 11.786,91.5 11.986,91.301 C12.186,91.101 12.429,91.001 12.714,91.001 L19.287,91.001 C19.552,91.001 19.79,91.101 20,91.301 C20.209,91.5 20.315,91.743 20.315,92.029 C20.315,92.029 20.315,91.743 20.315,92.029 L20.315,92.029 L20.315,92.029 Z M13.772,87.915 C13.772,86.41 14.515,85.657 16,85.657 C17.486,85.657 18.229,86.41 18.229,87.915 C18.229,89.4 17.486,90.142 16,90.142 C14.515,90.142 13.772,89.4 13.772,87.915 L13.772,87.915 Z M13.772,87.915" id="by--white" fill="#FFFFFF" sketch:type="MSShapeGroup"></path>
        <path d="M15.972,40 C20.467,40 24.258,41.543 27.343,44.629 C30.448,47.734 32.001,51.524 32.001,56 C32.001,60.496 30.477,64.238 27.429,67.228 C24.191,70.41 20.371,72 15.972,72 C11.648,72 7.896,70.43 4.715,67.286 C1.572,64.143 0,60.382 0,56 C0,51.619 1.572,47.829 4.715,44.629 C7.801,41.543 11.553,40 15.972,40 C15.972,40 11.553,40 15.972,40 L15.972,40 L15.972,40 Z M16.029,42.887 C12.391,42.887 9.315,44.163 6.8,46.715 C4.191,49.382 2.887,52.477 2.887,56 C2.887,59.543 4.181,62.61 6.772,65.201 C9.363,67.791 12.448,69.086 16.029,69.086 C19.591,69.086 22.696,67.782 25.343,65.172 C27.858,62.753 29.115,59.696 29.115,56 C29.115,52.362 27.838,49.268 25.286,46.715 C22.734,44.163 19.648,42.887 16.029,42.887 L16.029,42.887 L16.029,42.887 L16.029,42.887 Z M20.315,52.029 L20.315,58.572 L18.487,58.572 L18.487,66.344 L13.515,66.344 L13.515,58.572 L11.687,58.572 L11.687,52.029 C11.687,51.743 11.786,51.5 11.986,51.301 C12.186,51.101 12.429,51.001 12.714,51.001 L19.287,51.001 C19.552,51.001 19.79,51.101 20,51.301 C20.209,51.5 20.315,51.743 20.315,52.029 C20.315,52.029 20.315,51.743 20.315,52.029 L20.315,52.029 L20.315,52.029 Z M13.772,47.915 C13.772,46.41 14.515,45.657 16,45.657 C17.486,45.657 18.229,46.41 18.229,47.915 C18.229,49.4 17.486,50.142 16,50.142 C14.515,50.142 13.772,49.4 13.772,47.915 L13.772,47.915 Z M13.772,47.915" id="by--light--grey" fill="#67737B" sketch:type="MSShapeGroup"></path>
        <path d="M15.972,0 C20.467,0 24.258,1.543 27.343,4.629 C30.448,7.734 32.001,11.524 32.001,16 C32.001,20.496 30.477,24.238 27.429,27.228 C24.191,30.41 20.371,32 15.972,32 C11.648,32 7.896,30.43 4.715,27.286 C1.572,24.143 0,20.382 0,16 C0,11.619 1.572,7.829 4.715,4.629 C7.801,1.543 11.553,0 15.972,0 C15.972,0 11.553,0 15.972,0 L15.972,0 L15.972,0 Z M16.029,2.887 C12.391,2.887 9.315,4.163 6.8,6.715 C4.191,9.382 2.887,12.477 2.887,16 C2.887,19.543 4.181,22.61 6.772,25.201 C9.363,27.791 12.448,29.086 16.029,29.086 C19.591,29.086 22.696,27.782 25.343,25.172 C27.858,22.753 29.115,19.696 29.115,16 C29.115,12.362 27.838,9.268 25.286,6.715 C22.734,4.163 19.648,2.887 16.029,2.887 L16.029,2.887 L16.029,2.887 L16.029,2.887 Z M20.315,12.029 L20.315,18.572 L18.487,18.572 L18.487,26.344 L13.515,26.344 L13.515,18.572 L11.687,18.572 L11.687,12.029 C11.687,11.743 11.786,11.5 11.986,11.301 C12.186,11.101 12.429,11.001 12.714,11.001 L19.287,11.001 C19.552,11.001 19.79,11.101 20,11.301 C20.209,11.5 20.315,11.743 20.315,12.029 C20.315,12.029 20.315,11.743 20.315,12.029 L20.315,12.029 L20.315,12.029 Z M13.772,7.915 C13.772,6.41 14.515,5.657 16,5.657 C17.486,5.657 18.229,6.41 18.229,7.915 C18.229,9.4 17.486,10.142 16,10.142 C14.515,10.142 13.772,9.4 13.772,7.915 L13.772,7.915 Z M13.772,7.915" id="by--dark--grey" fill="#3B444F" sketch:type="MSShapeGroup"></path>
    </g>
</svg>
